svgs/regular/square-sliders.svg

<svg xmlns="http://www.w3.org/2000/svg" viewBox="0 0 448 512"><!--! Font Awesome Pro 6.3.0 by @fontawesome - https://fontawesome.com License - https://fontawesome.com/license (Commercial License) Copyright 2023 Fonticons, Inc. --><path d="M48 416c0 8.8 7.2 16 16 16l320 0c8.8 0 16-7.2 16-16l0-320c0-8.8-7.2-16-16-16L64 80c-8.8 0-16 7.2-16 16l0 320zM0 96C0 60.7 28.7 32 64 32l320 0c35.3 0 64 28.7 64 64l0 320c0 35.3-28.7 64-64 64L64 480c-35.3 0-64-28.7-64-64L0 96zm96 80c0-13.3 10.7-24 24-24l32 0 0-16c0-13.3 10.7-24 24-24s24 10.7 24 24l0 16 128 0c13.3 0 24 10.7 24 24s-10.7 24-24 24l-128 0 0 16c0 13.3-10.7 24-24 24s-24-10.7-24-24l0-16-32 0c-13.3 0-24-10.7-24-24zm24 184c-13.3 0-24-10.7-24-24s10.7-24 24-24l128 0 0-16c0-13.3 10.7-24 24-24s24 10.7 24 24l0 16 32 0c13.3 0 24 10.7 24 24s-10.7 24-24 24l-32 0 0 16c0 13.3-10.7 24-24 24s-24-10.7-24-24l0-16-128 0z"/></svg>

<svg xmlns="http://www.w3.org/2000/svg" viewBox="0 0 448 512"><!--! Font Awesome Pro 6.2.0 by @fontawesome - https://fontawesome.com License - https://fontawesome.com/license (Commercial License) Copyright 2022 Fonticons, Inc. --><path d="M120 152H152V136C152 122.7 162.7 112 176 112C189.3 112 200 122.7 200 136V152H328C341.3 152 352 162.7 352 176C352 189.3 341.3 200 328 200H200V216C200 229.3 189.3 240 176 240C162.7 240 152 229.3 152 216V200H120C106.7 200 96 189.3 96 176C96 162.7 106.7 152 120 152zM120 360C106.7 360 96 349.3 96 336C96 322.7 106.7 312 120 312H248V296C248 282.7 258.7 272 272 272C285.3 272 296 282.7 296 296V312H328C341.3 312 352 322.7 352 336C352 349.3 341.3 360 328 360H296V376C296 389.3 285.3 400 272 400C258.7 400 248 389.3 248 376V360H120zM0 96C0 60.65 28.65 32 64 32H384C419.3 32 448 60.65 448 96V416C448 451.3 419.3 480 384 480H64C28.65 480 0 451.3 0 416V96zM64 432H384C392.8 432 400 424.8 400 416V96C400 87.16 392.8 80 384 80H64C55.16 80 48 87.16 48 96V416C48 424.8 55.16 432 64 432z"/></svg>
